X: 112
T: The Bucks Motto
%R: slip-jig
M: 9/8
L: 1/8
Z: 2014 John Chambers <jc:trillian.mit.edu>
B: Chas & Sam Thompson "Twenty Four Country Dances for the Year 1802", London 1802, p.11 #2
F: http://folkopedia.efdss.org/images/4/41/Thompson_24_1802.PDF
K: C
|:\
cgf edc dBG | ABc dec BAG |\
cgf edc dBG | Afe dcB c3 :|
|:\
GEC cGE AFD | dBG GBd fed |\
(g2a) (g2a) (ge).c | cfe dcB c3 :|
% - - - - - - - - - - - - - - - - - - - - - - - - -
%%begintext align
%% Swing your Partner with your right hand
%% quite Round, the second Cu: do the same, lead
%% down the Middle, & Allemande.
%%endtext
% - - - - - - - - - - - - - - - - - - - - - - - - -

%%sep 1 1 500
%%sep 1 1 500
